Flat-Remix-Dark/apps/scalable/frozen-bubble.svg

<?xml version="1.0" encoding="UTF-8" standalone="no"?>
<svg
   xmlns:dc="http://purl.org/dc/elements/1.1/"
   xmlns:cc="http://creativecommons.org/ns#"
   xmlns:rdf="http://www.w3.org/1999/02/22-rdf-syntax-ns#"
   xmlns:svg="http://www.w3.org/2000/svg"
   xmlns="http://www.w3.org/2000/svg"
   xmlns:sodipodi="http://sodipodi.sourceforge.net/DTD/sodipodi-0.dtd"
   xmlns:inkscape="http://www.inkscape.org/namespaces/inkscape"
   width="512"
   height="512"
   version="1.1"
   viewBox="0 0 384 384"
   id="svg123"
   sodipodi:docname="frozen-bubble.svg"
   inkscape:version="0.92.4 5da689c313, 2019-01-14">
  <metadata
     id="metadata127">
    <rdf:RDF>
      <cc:Work
         rdf:about="">
        <dc:format>image/svg+xml</dc:format>
        <dc:type
           rdf:resource="http://purl.org/dc/dcmitype/StillImage" />
        <dc:title></dc:title>
      </cc:Work>
    </rdf:RDF>
  </metadata>
  <sodipodi:namedview
     pagecolor="#ffffff"
     bordercolor="#666666"
     borderopacity="1"
     objecttolerance="10"
     gridtolerance="10"
     guidetolerance="10"
     inkscape:pageopacity="0"
     inkscape:pageshadow="2"
     inkscape:window-width="1720"
     inkscape:window-height="1382"
     id="namedview125"
     showgrid="false"
     inkscape:zoom="3.3200873"
     inkscape:cx="388.31595"
     inkscape:cy="297.95454"
     inkscape:window-x="1080"
     inkscape:window-y="315"
     inkscape:window-maximized="0"
     inkscape:current-layer="svg123" />
  <defs
     id="defs87">
    <filter
       id="alpha"
       width="100%"
       height="100%"
       x="0%"
       y="0%"
       filterUnits="objectBoundingBox">
      <feColorMatrix
         in="SourceGraphic"
         type="matrix"
         values="0 0 0 0 1 0 0 0 0 1 0 0 0 0 1 0 0 0 1 0"
         id="feColorMatrix2" />
    </filter>
    <mask
       id="mask0">
      <g
         filter="url(#alpha)"
         id="g7">
        <rect
           width="384"
           height="384"
           x="0"
           y="0"
           style="fill:rgb(0%,0%,0%);fill-opacity:0.2"
           id="rect5" />
      </g>
    </mask>
    <clipPath
       id="clip1">
      <rect
         width="384"
         height="384"
         x="0"
         y="0"
         id="rect10" />
    </clipPath>
    <g
       id="surface5"
       clip-path="url(#clip1)">
      <path
         style="fill:rgb(0%,0%,0%)"
         d="M 141.597656 191.351562 C 124.527344 244.152344 91.902344 302.730469 24 292.914062 C 28.488281 248.75 46.824219 204.285156 72.722656 168.605469 C 78.183594 161.085938 89.449219 157.75 94.105469 151.199219 Z M 141.597656 191.351562"
         id="path13" />
    </g>
    <mask
       id="mask1">
      <g
         filter="url(#alpha)"
         id="g18">
        <rect
           width="384"
           height="384"
           x="0"
           y="0"
           style="fill:rgb(0%,0%,0%);fill-opacity:0.2"
           id="rect16" />
      </g>
    </mask>
    <clipPath
       id="clip2">
      <rect
         width="384"
         height="384"
         x="0"
         y="0"
         id="rect21" />
    </clipPath>
    <g
       id="surface8"
       clip-path="url(#clip2)">
      <path
         style="fill:rgb(0%,0%,0%)"
         d="M 168.226562 30 C 127.882812 30.59375 47.101562 96.453125 37.089844 175.652344 C 34.203125 198.460938 37.164062 222.742188 44.632812 245.429688 C 48.761719 316.625 142.246094 362.109375 200.636719 365.964844 C 272.066406 367.648438 338.78125 306.875 351.890625 290.5625 C 375.867188 255.101562 341.929688 178.660156 311.652344 134.144531 C 278.425781 85.292969 216.488281 49.722656 168.226562 30 Z M 168.226562 30"
         id="path24" />
    </g>
    <mask
       id="mask2">
      <g
         filter="url(#alpha)"
         id="g29">
        <rect
           width="384"
           height="384"
           x="0"
           y="0"
           style="fill:rgb(0%,0%,0%);fill-opacity:0.101961"
           id="rect27" />
      </g>
    </mask>
    <clipPath
       id="clip3">
      <rect
         width="384"
         height="384"
         x="0"
         y="0"
         id="rect32" />
    </clipPath>
    <g
       id="surface11"
       clip-path="url(#clip3)">
      <path
         style="fill:rgb(100.000%,100.000%,100.000%)"
         d="M 168.222656 24 C 127.878906 24.59375 47.101562 90.453125 37.089844 169.652344 C 36.234375 176.417969 35.945312 183.320312 36.082031 190.265625 C 36.183594 185.351562 36.480469 180.464844 37.089844 175.652344 C 47.101562 96.453125 127.878906 30.59375 168.222656 30 C 216.484375 49.722656 278.421875 85.292969 311.648438 134.144531 C 333.992188 166.992188 358.261719 217.191406 359.847656 255.515625 C 360.8125 216.574219 335.183594 162.746094 311.648438 128.144531 C 278.421875 79.292969 216.484375 43.722656 168.222656 24 Z M 168.222656 24"
         id="path35" />
    </g>
    <mask
       id="mask3">
      <g
         filter="url(#alpha)"
         id="g40">
        <rect
           width="384"
           height="384"
           x="0"
           y="0"
           style="fill:rgb(0%,0%,0%);fill-opacity:0.2"
           id="rect38" />
      </g>
    </mask>
    <clipPath
       id="clip4">
      <rect
         width="384"
         height="384"
         x="0"
         y="0"
         id="rect43" />
    </clipPath>
    <g
       id="surface14"
       clip-path="url(#clip4)">
      <path
         style="fill:rgb(0%,0%,0%)"
         d="M 268.488281 126 C 321.734375 143.421875 380.804688 176.710938 370.90625 246 C 326.371094 241.417969 281.53125 222.710938 245.550781 196.28125 C 237.96875 190.710938 234.605469 179.214844 228 174.460938 Z M 268.488281 126"
         id="path46" />
    </g>
    <linearGradient
       id="linear0"
       x1="30.577"
       x2="45"
       y1="19.129"
       y2="27.456"
       gradientTransform="matrix(8.470588,0,0,8,-9.176466,-6e-6)"
       gradientUnits="userSpaceOnUse">
      <stop
         offset="0"
         style="stop-color:rgb(54.901%,25.882%,67.058%)"
         id="stop49" />
      <stop
         offset="1"
         style="stop-color:rgb(54.901%,25.882%,67.058%)"
         id="stop51" />
    </linearGradient>
    <mask
       id="mask4">
      <g
         filter="url(#alpha)"
         id="g56">
        <rect
           width="384"
           height="384"
           x="0"
           y="0"
           style="fill:rgb(0%,0%,0%);fill-opacity:0.2"
           id="rect54" />
      </g>
    </mask>
    <clipPath
       id="clip5">
      <rect
         width="384"
         height="384"
         x="0"
         y="0"
         id="rect59" />
    </clipPath>
    <g
       id="surface17"
       clip-path="url(#clip5)">
      <path
         style="fill:rgb(0%,0%,0%)"
         d="M 144 186 C 152.335938 222.203125 80.433594 259.539062 44.359375 245.039062 C 26.996094 238.0625 24.035156 211.492188 24.765625 190.707031 C 25.503906 172.292969 23.65625 166.6875 42.089844 164.929688 C 77 161.695312 140.335938 170.09375 144 186 Z M 144 186"
         id="path62" />
    </g>
    <mask
       id="mask5">
      <g
         filter="url(#alpha)"
         id="g67">
        <rect
           width="384"
           height="384"
           x="0"
           y="0"
           style="fill:rgb(0%,0%,0%);fill-opacity:0.2"
           id="rect65" />
      </g>
    </mask>
    <clipPath
       id="clip6">
      <rect
         width="384"
         height="384"
         x="0"
         y="0"
         id="rect70" />
    </clipPath>
    <g
       id="surface20"
       clip-path="url(#clip6)">
      <path
         style="fill:rgb(0%,0%,0%)"
         d="M 12 138 C 12 157.882812 28.117188 174 48 174 C 67.882812 174 84 157.882812 84 138 C 84 118.117188 67.882812 102 48 102 C 28.117188 102 12 118.117188 12 138 Z M 12 138"
         id="path73" />
    </g>
    <mask
       id="mask6">
      <g
         filter="url(#alpha)"
         id="g78">
        <rect
           width="384"
           height="384"
           x="0"
           y="0"
           style="fill:rgb(0%,0%,0%);fill-opacity:0.2"
           id="rect76" />
      </g>
    </mask>
    <clipPath
       id="clip7">
      <rect
         width="384"
         height="384"
         x="0"
         y="0"
         id="rect81" />
    </clipPath>
    <g
       id="surface23"
       clip-path="url(#clip7)">
      <path
         style="fill:rgb(0%,0%,0%)"
         d="M 72 132 C 72 161.824219 96.175781 186 126 186 C 155.824219 186 180 161.824219 180 132 C 180 102.175781 155.824219 78 126 78 C 96.175781 78 72 102.175781 72 132 Z M 72 132"
         id="path84" />
    </g>
    <linearGradient
       id="linear0-5"
       x1="30.577"
       x2="45"
       y1="19.129"
       y2="27.455999"
       gradientTransform="matrix(8.4705878,0,0,7.9999995,-9.1764542,7.499985)"
       gradientUnits="userSpaceOnUse">
      <stop
         offset="0"
         style="stop-color:rgb(54.901%,25.882%,67.058%)"
         id="stop49-0" />
      <stop
         offset="1"
         style="stop-color:rgb(54.901%,25.882%,67.058%)"
         id="stop51-3" />
    </linearGradient>
    <linearGradient
       id="linear0-2"
       x1="30.577"
       x2="45"
       y1="19.129"
       y2="27.455999"
       gradientTransform="matrix(11.294117,0,0,10.666666,-12.235279,-9.3333333e-6)"
       gradientUnits="userSpaceOnUse">
      <stop
         offset="0"
         style="stop-color:rgb(54.901%,25.882%,67.058%)"
         id="stop49-06" />
      <stop
         offset="1"
         style="stop-color:rgb(54.901%,25.882%,67.058%)"
         id="stop51-1" />
    </linearGradient>
    <linearGradient
       id="linear0-54"
       x1="30.577"
       x2="45"
       y1="19.129"
       y2="27.455999"
       gradientTransform="matrix(8.4705878,0,0,7.9999995,-9.176459,7.499992)"
       gradientUnits="userSpaceOnUse">
      <stop
         offset="0"
         style="stop-color:rgb(54.901%,25.882%,67.058%)"
         id="stop49-7" />
      <stop
         offset="1"
         style="stop-color:rgb(54.901%,25.882%,67.058%)"
         id="stop51-6" />
    </linearGradient>
  </defs>
  <path
     inkscape:connector-curvature="0"
     id="path93-0"
     d="M 141.59766,192.85156 C 124.52734,245.65234 91.90234,304.23047 24,294.41406 28.48828,250.25 46.82422,205.78516 72.72266,170.10547 78.18359,162.58594 89.44922,159.25 94.10547,152.69922 Z m 0,0"
     style="fill:#000000;stroke-width:0.99999994;fill-opacity:1;opacity:0.3" />
  <path
     inkscape:connector-curvature="0"
     id="path95-1"
     d="m 168.22657,31.500005 c -40.34375,0.59375 -121.125001,66.45312 -131.136721,145.652335 -2.88672,22.80859 0.0742,47.08984 7.54297,69.77735 C 48.761729,318.125 142.2461,363.60936 200.63673,367.46483 272.06641,369.14843 338.78125,308.375 351.89062,292.0625 375.86719,256.60156 341.92969,180.16015 311.65234,135.64453 278.42578,86.792965 216.48828,51.222655 168.22657,31.500005 Z m 0,0"
     style="fill:#000000;stroke-width:0.99999994;fill-opacity:1;opacity:0.3" />
  <path
     inkscape:connector-curvature="0"
     id="path93"
     d="M 141.59766,185.35156 C 124.52734,238.15234 91.902344,296.73047 24,286.91406 28.488281,242.75 46.824219,198.28516 72.722656,162.60547 78.183594,155.08594 89.449219,151.75 94.105469,145.19922 Z m 0,0"
     style="fill:#4a4a4a" />
  <path
     inkscape:connector-curvature="0"
     id="path95"
     d="M 168.22656,24 C 127.88281,24.59375 47.101562,90.453125 37.089844,169.65234 c -2.886719,22.8086 0.07422,47.08985 7.542968,69.77735 4.128907,71.19531 97.613278,116.67968 156.003908,120.53515 71.42969,1.6836 138.14453,-59.08984 151.2539,-75.40234 C 375.86719,249.10156 341.92969,172.66016 311.65234,128.14453 278.42578,79.292969 216.48828,43.722656 168.22656,24 Z m 0,0"
     style="fill:#8a3fab" />
  <path
     style="fill:#ffffff;stroke-width:1.33333325;fill-opacity:1;opacity:0.3"
     d="M 224.30273 32 C 170.51107 32.791667 62.802085 120.60417 49.453125 226.20312 C 48.254744 235.67179 47.812911 245.33069 48.072266 255.05664 C 48.222975 248.71442 48.666768 242.4163 49.453125 236.20312 C 62.802082 130.60416 170.51107 42.791667 224.30273 42 C 288.65168 68.29688 371.23503 115.72397 415.53711 180.85938 C 445.34214 224.68058 477.79921 291.7015 479.88477 342.80859 C 482.13969 290.74331 447.33007 217.60334 415.53711 170.85938 C 371.23503 105.72396 288.65168 58.29688 224.30273 32 z "
     transform="scale(0.75)"
     id="path95-6" />
  <path
     inkscape:connector-curvature="0"
     id="path99"
     d="m 153.00781,215.73047 c -29.40234,-27.99219 -70.699216,-31.75781 -92.246091,-8.41016 -21.542969,23.34766 -15.171875,64.96485 14.230469,92.95703 29.402342,27.99219 70.703122,31.75782 92.246092,8.41016 21.54297,-23.34766 15.17188,-64.96484 -14.23047,-92.95703 z m 0,0"
     style="fill:#ffffff" />
  <path
     inkscape:connector-curvature="0"
     id="path107-9"
     d="m 143.33203,185.25781 c 8.33983,36.20313 -63.566409,73.53516 -99.640619,59.03906 -17.36328,-6.98046 -20.32422,-33.55078 -19.58985,-54.33593 0.73438,-18.41016 -1.10937,-24.01953 17.32031,-25.77344 34.91016,-3.23438 98.246099,5.16406 101.910159,21.07031 z m 0,0"
     style="fill:#000000;stroke-width:0.99999994;fill-opacity:1;opacity:0.31" />
  <path
     inkscape:connector-curvature="0"
     style="fill:#24112c;stroke-width:0.99999994;fill-opacity:1;opacity:0.3"
     d="m 268.48828,127.5 c 53.24609,17.42186 112.3164,50.71093 102.41797,120 -44.53516,-4.58203 -89.375,-23.28906 -125.35547,-49.71876 C 237.96875,192.21093 234.60547,180.71483 228,175.96093 Z m 0,0"
     id="path103-6" />
  <path
     inkscape:connector-curvature="0"
     id="path103"
     d="m 268.48828,120 c 53.24609,17.42187 112.31641,50.71094 102.41797,120 -44.53516,-4.58203 -89.375,-23.28906 -125.35547,-49.71875 C 237.96875,184.71094 234.60547,173.21484 228,168.46094 Z m 0,0"
     style="fill:url(#linear0)" />
  <path
     inkscape:connector-curvature="0"
     id="path107"
     d="m 143.33203,177.75781 c 8.33984,36.20313 -63.566405,73.53516 -99.640624,59.03906 -17.363281,-6.98046 -20.324218,-33.55078 -19.589844,-54.33593 0.734376,-18.41016 -1.109374,-24.01953 17.320313,-25.77344 34.910156,-3.23438 98.246095,5.16406 101.910155,21.07031 z m 0,0"
     style="fill:#ffc72e" />
  <path
     inkscape:connector-curvature="0"
     id="path113-3"
     d="m 12,139.5 c 0,19.8828 16.11719,36 36,36 19.88281,0 36,-16.1172 36,-36 0,-19.88281 -16.11719,-36 -36,-36 -19.88281,0 -36,16.11719 -36,36 z m 0,0"
     style="fill:#000000;stroke-width:0.99999994;fill-opacity:1;opacity:0.3" />
  <path
     inkscape:connector-curvature="0"
     id="path113"
     d="m 12,132 c 0,19.88281 16.117188,36 36,36 19.882812,0 36,-16.11719 36,-36 C 84,112.11719 67.882812,96 48,96 28.117188,96 12,112.11719 12,132 Z m 0,0"
     style="fill:#ffffff" />
  <path
     inkscape:connector-curvature="0"
     id="path115-7"
     d="m 72,133.5 c 0,29.82421 24.17578,54 54,54 29.82421,0 53.99999,-24.17579 53.99999,-54 0,-29.82422 -24.17578,-54 -53.99999,-54 -29.82422,0 -54,24.17578 -54,54 z m 0,0"
     style="fill:#000000;stroke-width:0.99999994;fill-opacity:1;opacity:0.3" />
  <path
     inkscape:connector-curvature="0"
     id="path115"
     d="m 72,126 c 0,29.82422 24.175781,54 54,54 29.82422,0 54,-24.17578 54,-54 0,-29.824219 -24.17578,-54 -54,-54 -29.824219,0 -54,24.175781 -54,54 z m 0,0"
     style="fill:#ffffff" />
  <path
     inkscape:connector-curvature="0"
     id="path117"
     d="m 84,132 c 0,13.25391 10.746094,24 24,24 13.25391,0 24,-10.74609 24,-24 0,-13.25391 -10.74609,-24 -24,-24 -13.253906,0 -24,10.74609 -24,24 z m 0,0"
     style="fill:#4a4a4a" />
  <path
     inkscape:connector-curvature="0"
     id="path119"
     d="m 24,132 c 0,9.94141 8.058594,18 18,18 9.941406,0 18,-8.05859 18,-18 0,-9.94141 -8.058594,-18 -18,-18 -9.941406,0 -18,8.05859 -18,18 z m 0,0"
     style="fill:#4a4a4a" />
  <path
     style="opacity:0.3;fill:#f9f5fb;fill-opacity:1;stroke-width:1.33333325"
     d="m 357.98438,160 -4.61914,5.52734 c 1.67315,1.20415 3.18982,2.73545 4.61914,4.47266 v 0 c 64.25429,21.0237 134.86479,59.37906 137.91015,134.96289 C 498.94377,222.72785 425.01104,181.93081 357.98438,160 Z"
     transform="scale(0.75)"
     id="path103-5"
     inkscape:connector-curvature="0"
     sodipodi:nodetypes="cccccc" />
</svg>

<svg xmlns="http://www.w3.org/2000/svg" xmlns:xlink="http://www.w3.org/1999/xlink" width="384pt" height="384pt" version="1.1" viewBox="0 0 384 384"> <defs> <filter id="alpha" width="100%" height="100%" x="0%" y="0%" filterUnits="objectBoundingBox"> <feColorMatrix in="SourceGraphic" type="matrix" values="0 0 0 0 1 0 0 0 0 1 0 0 0 0 1 0 0 0 1 0"/> </filter> <mask id="mask0"> <g filter="url(#alpha)"> <rect width="384" height="384" x="0" y="0" style="fill:rgb(0%,0%,0%);fill-opacity:0.2"/> </g> </mask> <clipPath id="clip1"> <rect width="384" height="384" x="0" y="0"/> </clipPath> <g id="surface5" clip-path="url(#clip1)"> <path style="fill:rgb(0%,0%,0%)" d="M 141.597656 191.351562 C 124.527344 244.152344 91.902344 302.730469 24 292.914062 C 28.488281 248.75 46.824219 204.285156 72.722656 168.605469 C 78.183594 161.085938 89.449219 157.75 94.105469 151.199219 Z M 141.597656 191.351562"/> </g> <mask id="mask1"> <g filter="url(#alpha)"> <rect width="384" height="384" x="0" y="0" style="fill:rgb(0%,0%,0%);fill-opacity:0.2"/> </g> </mask> <clipPath id="clip2"> <rect width="384" height="384" x="0" y="0"/> </clipPath> <g id="surface8" clip-path="url(#clip2)"> <path style="fill:rgb(0%,0%,0%)" d="M 168.226562 30 C 127.882812 30.59375 47.101562 96.453125 37.089844 175.652344 C 34.203125 198.460938 37.164062 222.742188 44.632812 245.429688 C 48.761719 316.625 142.246094 362.109375 200.636719 365.964844 C 272.066406 367.648438 338.78125 306.875 351.890625 290.5625 C 375.867188 255.101562 341.929688 178.660156 311.652344 134.144531 C 278.425781 85.292969 216.488281 49.722656 168.226562 30 Z M 168.226562 30"/> </g> <mask id="mask2"> <g filter="url(#alpha)"> <rect width="384" height="384" x="0" y="0" style="fill:rgb(0%,0%,0%);fill-opacity:0.101961"/> </g> </mask> <clipPath id="clip3"> <rect width="384" height="384" x="0" y="0"/> </clipPath> <g id="surface11" clip-path="url(#clip3)"> <path style="fill:rgb(100.000%,100.000%,100.000%)" d="M 168.222656 24 C 127.878906 24.59375 47.101562 90.453125 37.089844 169.652344 C 36.234375 176.417969 35.945312 183.320312 36.082031 190.265625 C 36.183594 185.351562 36.480469 180.464844 37.089844 175.652344 C 47.101562 96.453125 127.878906 30.59375 168.222656 30 C 216.484375 49.722656 278.421875 85.292969 311.648438 134.144531 C 333.992188 166.992188 358.261719 217.191406 359.847656 255.515625 C 360.8125 216.574219 335.183594 162.746094 311.648438 128.144531 C 278.421875 79.292969 216.484375 43.722656 168.222656 24 Z M 168.222656 24"/> </g> <mask id="mask3"> <g filter="url(#alpha)"> <rect width="384" height="384" x="0" y="0" style="fill:rgb(0%,0%,0%);fill-opacity:0.2"/> </g> </mask> <clipPath id="clip4"> <rect width="384" height="384" x="0" y="0"/> </clipPath> <g id="surface14" clip-path="url(#clip4)"> <path style="fill:rgb(0%,0%,0%)" d="M 268.488281 126 C 321.734375 143.421875 380.804688 176.710938 370.90625 246 C 326.371094 241.417969 281.53125 222.710938 245.550781 196.28125 C 237.96875 190.710938 234.605469 179.214844 228 174.460938 Z M 268.488281 126"/> </g> <linearGradient id="linear0" x1="30.577" x2="45" y1="19.129" y2="27.456" gradientTransform="matrix(8.470588,0,0,8,-9.176466,-0.000006)" gradientUnits="userSpaceOnUse"> <stop offset="0" style="stop-color:rgb(54.901%,25.882%,67.058%)"/> <stop offset="1" style="stop-color:rgb(54.901%,25.882%,67.058%)"/> </linearGradient> <mask id="mask4"> <g filter="url(#alpha)"> <rect width="384" height="384" x="0" y="0" style="fill:rgb(0%,0%,0%);fill-opacity:0.2"/> </g> </mask> <clipPath id="clip5"> <rect width="384" height="384" x="0" y="0"/> </clipPath> <g id="surface17" clip-path="url(#clip5)"> <path style="fill:rgb(0%,0%,0%)" d="M 144 186 C 152.335938 222.203125 80.433594 259.539062 44.359375 245.039062 C 26.996094 238.0625 24.035156 211.492188 24.765625 190.707031 C 25.503906 172.292969 23.65625 166.6875 42.089844 164.929688 C 77 161.695312 140.335938 170.09375 144 186 Z M 144 186"/> </g> <mask id="mask5"> <g filter="url(#alpha)"> <rect width="384" height="384" x="0" y="0" style="fill:rgb(0%,0%,0%);fill-opacity:0.2"/> </g> </mask> <clipPath id="clip6"> <rect width="384" height="384" x="0" y="0"/> </clipPath> <g id="surface20" clip-path="url(#clip6)"> <path style="fill:rgb(0%,0%,0%)" d="M 12 138 C 12 157.882812 28.117188 174 48 174 C 67.882812 174 84 157.882812 84 138 C 84 118.117188 67.882812 102 48 102 C 28.117188 102 12 118.117188 12 138 Z M 12 138"/> </g> <mask id="mask6"> <g filter="url(#alpha)"> <rect width="384" height="384" x="0" y="0" style="fill:rgb(0%,0%,0%);fill-opacity:0.2"/> </g> </mask> <clipPath id="clip7"> <rect width="384" height="384" x="0" y="0"/> </clipPath> <g id="surface23" clip-path="url(#clip7)"> <path style="fill:rgb(0%,0%,0%)" d="M 72 132 C 72 161.824219 96.175781 186 126 186 C 155.824219 186 180 161.824219 180 132 C 180 102.175781 155.824219 78 126 78 C 96.175781 78 72 102.175781 72 132 Z M 72 132"/> </g> </defs> <g> <use mask="url(#mask0)" xlink:href="#surface5"/> <use mask="url(#mask1)" xlink:href="#surface8"/> <path style="fill:rgb(29.803%,29.803%,29.803%)" d="M 141.597656 185.351562 C 124.527344 238.152344 91.902344 296.730469 24 286.914062 C 28.488281 242.75 46.824219 198.285156 72.722656 162.605469 C 78.183594 155.085938 89.449219 151.75 94.105469 145.199219 Z M 141.597656 185.351562"/> <path style="fill:rgb(54.901%,25.882%,67.058%)" d="M 168.226562 24 C 127.882812 24.59375 47.101562 90.453125 37.089844 169.652344 C 34.203125 192.460938 37.164062 216.742188 44.632812 239.429688 C 48.761719 310.625 142.246094 356.109375 200.636719 359.964844 C 272.066406 361.648438 338.78125 300.875 351.890625 284.5625 C 375.867188 249.101562 341.929688 172.660156 311.652344 128.144531 C 278.425781 79.292969 216.488281 43.722656 168.226562 24 Z M 168.226562 24"/> <use mask="url(#mask2)" xlink:href="#surface11"/> <path style="fill:rgb(100.000%,100.000%,100.000%)" d="M 153.007812 215.730469 C 123.605469 187.738281 82.308594 183.972656 60.761719 207.320312 C 39.21875 230.667969 45.589844 272.285156 74.992188 300.277344 C 104.394531 328.269531 145.695312 332.035156 167.238281 308.6875 C 188.78125 285.339844 182.410156 243.722656 153.007812 215.730469 Z M 153.007812 215.730469"/> <use mask="url(#mask3)" xlink:href="#surface14"/> <path style="fill:url(#linear0)" d="M 268.488281 120 C 321.734375 137.421875 380.804688 170.710938 370.90625 240 C 326.371094 235.417969 281.53125 216.710938 245.550781 190.28125 C 237.96875 184.710938 234.605469 173.214844 228 168.460938 Z M 268.488281 120"/> <use mask="url(#mask4)" xlink:href="#surface17"/> <path style="fill:rgb(100.000%,78.039%,18.823%)" d="M 143.332031 177.757812 C 151.671875 213.960938 79.765625 251.292969 43.691406 236.796875 C 26.328125 229.816406 23.367188 203.246094 24.101562 182.460938 C 24.835938 164.050781 22.992188 158.441406 41.421875 156.6875 C 76.332031 153.453125 139.667969 161.851562 143.332031 177.757812 Z M 143.332031 177.757812"/> <use mask="url(#mask5)" xlink:href="#surface20"/> <use mask="url(#mask6)" xlink:href="#surface23"/> <path style="fill:rgb(100.000%,100.000%,100.000%)" d="M 12 132 C 12 151.882812 28.117188 168 48 168 C 67.882812 168 84 151.882812 84 132 C 84 112.117188 67.882812 96 48 96 C 28.117188 96 12 112.117188 12 132 Z M 12 132"/> <path style="fill:rgb(100.000%,100.000%,100.000%)" d="M 72 126 C 72 155.824219 96.175781 180 126 180 C 155.824219 180 180 155.824219 180 126 C 180 96.175781 155.824219 72 126 72 C 96.175781 72 72 96.175781 72 126 Z M 72 126"/> <path style="fill:rgb(29.803%,29.803%,29.803%)" d="M 84 132 C 84 145.253906 94.746094 156 108 156 C 121.253906 156 132 145.253906 132 132 C 132 118.746094 121.253906 108 108 108 C 94.746094 108 84 118.746094 84 132 Z M 84 132"/> <path style="fill:rgb(29.803%,29.803%,29.803%)" d="M 24 132 C 24 141.941406 32.058594 150 42 150 C 51.941406 150 60 141.941406 60 132 C 60 122.058594 51.941406 114 42 114 C 32.058594 114 24 122.058594 24 132 Z M 24 132"/> </g> </svg>
